src/Icon/svgs/store.svg

<svg width="24" height="24" viewBox="0 0 24 24" fill="none" xmlns="http://www.w3.org/2000/svg">
<path fill-rule="evenodd" clip-rule="evenodd" d="M5 13.874V20H19V13.874C18.6804 13.9562 18.3453 14 18 14C16.8053 14 15.7329 13.4762 15 12.6458C14.2671 13.4762 13.1947 14 12 14C10.8053 14 9.73294 13.4762 9 12.6458C8.26705 13.4762 7.19469 14 6 14C5.6547 14 5.31962 13.9562 5 13.874ZM21 12.6458V20C21 21.1045 20.1046 22 19 22H5C3.89543 22 3 21.1045 3 20V12.6458C2.38629 11.9505 2.01055 11.0401 2.00022 10.0422C1.99597 9.93864 2.00798 9.83199 2.03847 9.72526L4.03847 2.72504C4.16113 2.29574 4.55351 1.99976 5 1.99976H19C19.4465 1.99976 19.8389 2.29574 19.9615 2.72504L21.9615 9.72526C21.992 9.83199 22.004 9.93864 21.9998 10.0422C21.9894 11.0401 21.6137 11.9505 21 12.6458ZM19.3885 7.99976L18.2457 3.99976H5.75431L4.61149 7.99976H19.3885ZM6 12C7.10457 12 8 11.1045 8 9.99998H4C4 11.1045 4.89543 12 6 12ZM12 12C13.1046 12 14 11.1045 14 9.99998H10C10 11.1045 10.8954 12 12 12ZM18 12C19.1046 12 20 11.1045 20 9.99998H16C16 11.1045 16.8954 12 18 12Z" fill="#1B1C1D"/>
</svg>

<svg xmlns="http://www.w3.org/2000/svg" width="24" height="24" fill="none"  xmlns:v="https://vecta.io/nano"><path fill-rule="evenodd" d="M5 13.874V20h14v-6.126A4.01 4.01 0 0 1 18 14a3.99 3.99 0 0 1-3-1.354 3.99 3.99 0 0 1-6 0A3.99 3.99 0 0 1 6 14a4.01 4.01 0 0 1-1-.126zm16-1.228V20a2 2 0 0 1-2 2H5a2 2 0 0 1-2-2v-7.354c-.614-.695-.989-1.606-1-2.604a1 1 0 0 1 .038-.317l2-7A1 1 0 0 1 5 2h14a1 1 0 0 1 .962.725l2 7c.03.107.043.213.038.317-.01.998-.386 1.908-1 2.604zM19.389 8l-1.143-4H5.754L4.611 8h14.777zM6 12a2 2 0 0 0 2-2H4a2 2 0 0 0 2 2zm6 0a2 2 0 0 0 2-2h-4a2 2 0 0 0 2 2zm6 0a2 2 0 0 0 2-2h-4a2 2 0 0 0 2 2z" fill="#1b1c1d"/></svg>
